X: 49
T: You Came Near Finding Them
N: Derived from pawnee49.krn
O: Oklahoma, U.S.A.
N: from Pawnee Music by Frances Densmore, 1926
Z: transcribed to **kern format by David Huron, August 2000
C: Skidi and Chaui Bands, 1919
L: 1/8
M: 2/4
Q: 1/4=88
K: Bb clef=treble
%%linebreak <none>
F> GF2 | 
(3G F C (3C C C | 
D> FE2 | 
(3F C C (3B, B, B, | 
B,> CB,2 | 
(3C B, F, (3F, F, F, | 
B,> CB,2 | 
(3C C B, (3B, B, B, |]  



